X:1
T:His Promise to Me
T:His Promise to Me
T:Henry Prior Morton
T:James Rowe, 1917
T:Public Domain Courtesy of the Cyber Hymnal™
T:Public Domain Courtesy of the Cyber Hymnal™
C:Henry Prior Morton
Z:Public Domain
Z:Courtesy of the Cyber Hymnal™
%%score ( 1 2 ) ( 3 4 )
L:1/8
Q:1/4=105
M:4/4
K:Bb
V:1 treble 
V:2 treble 
V:3 bass 
V:4 bass 
V:1
 [B,D][CE] | [DF]2 [DF]2 [DF][DB][EA][EG] | [DF]2 [DF]2 [DF][B,D][CE][_D=E] | %3
w: 1.~Dark- ness|may o’er- take me and my|song for- sake me, But a-|
w: 2.~Should mis-|for- tune meet me, friends may|fail to greet me, But if|
w: 3.~How the|thought en- thralls me, that what-|e’er be- falls me One will|
 [DF]2 [DG]2 [DA] [DB]2 [DG] | [EA]6 [EA][EB] | [Ec]2 [Ec]2 [Ec][EA][EG][EA] | %6
w: lone I nev- er shall|be; For the|Friend be- side me prom- ised|
w: true to Je- sus I|stay He will|still up- hold me, let His|
w: al- ways love me the|same; Not a|tri- al ev- er caus- es|
 [DB]2 [DB]2 [DB][DF][FG][F_A] | [FA]2 [Fc]2 [=Ed] [Ec]2 [CE] | F4- !fermata![EF]2 || %9
w: He would guide me, And will|keep His prom- ise to|me. *|
w: love en- fold me Ev- ery|drear- y mile of the|way. He|
w: Him to sev- er From the|ones who hon- or His|Name. *|
"^Refrain" !fermata![Fd]!fermata![Ec] | [DB]2 [DB]2 [DB] [Fc]2 [FB] | A6 [EA][DB] | %12
w: |||
w: * will|keep his prom- ise to|me, All the|
w: |||
 [Ec]2 [Ec]2 [Ec]2 [Fe][EA] | B6 [DB][Ec] | [Fd]2 [Fd]2 [Fd][DB][Ec][Fd] | %15
w: |||
w: way with me He will|go; He has|nev- er brok- en a- ny|
w: |||
 [Ge]2 [Ge]2 [Ge][EG][_DA][DG] | [DF]2 [Fd]2 [Fd] [DB]2 [Ec] | [DB]6 |] %18
w: |||
w: prom- ise spok- en; He will|keep His prom- ise, I|know.|
w: |||
V:2
 x2 | x8 | x8 | x8 | x8 | x8 | x8 | x8 | C2 D2 x2 || x2 | x8 | (E E2 E E2) x2 | x8 | %13
 (D2 FE D2) x2 | x8 | x8 | x8 | x6 |] %18
V:3
 [B,,F,][B,,F,] | [B,,B,]2 [B,,B,]2 [B,,B,][B,,F,][B,,G,][B,,A,] | %2
w: ~ ~|~ ~ ~ ~ ~ ~|
 [B,,B,]2 [B,,B,]2 [B,,B,][B,,F,][B,,F,][B,,G,] | [B,,B,]2 [B,,B,]2 [B,,B,] [B,,F,]2 [B,,B,] | %4
w: ~ ~ ~ ~ ~ ~|~ ~ ~ ~ ~|
 [F,C]6 [F,C][F,G,] | [F,A,]2 [F,A,]2 [F,A,][F,C][F,C]F, | %6
w: ~ ~ ~|~ ~ ~ ~ ~ ~|
 [B,,F,]2 [B,,F,]2 [B,,F,][B,,B,][B,,D][=B,,D] | [C,C]2 [C,A,]2 [C,B,] [C,B,]2 [C,B,] | %8
w: ~ ~ ~ ~ ~ ~|~ ~ ~ ~ ~|
 (A,2 B,2 [F,C]2) || !fermata![F,A,]!fermata![F,A,] | [B,,B,]2 [B,,F,]2 [B,,F,] [B,,B,]2 [B,,D] | %11
w: ~ * *|* ~|~ ~ ~ ~ ~|
 [F,C] [F,C]2 [F,C] [F,C]2 [F,C][F,B,] | [F,A,]2 [F,A,]2 [F,A,]2 [F,C][F,C] | %13
w: His prom- ise to me, ~|~ ~ ~ ~ ~|
 [B,,B,]2 [B,,A,][B,,G,] [B,,F,]2 [B,,F,][B,,F,] | [B,,B,]2 [B,,B,]2 [B,,B,][B,,B,][B,,B,][B,,B,] | %15
w: ~ ~ He will go; *||
 [E,B,]2 [E,B,]2 [E,B,][E,B,][=E,B,][E,B,] | [F,B,]2 [F,B,]2 [F,B,] [F,B,]2 F, | [B,,F,]6 |] %18
w: |||
V:4
 x2 | x8 | x8 | x8 | x8 | x7 F, | x8 | x8 | F,4- x2 || x2 | x8 | x8 | x8 | x8 | x8 | x8 | x7 F, | %17
 x6 |] %18

